_/img/pencil.svg

<svg width="17" height="17" viewBox="0 0 17 17" fill="none" xmlns="http://www.w3.org/2000/svg">
<path fill-rule="evenodd" clip-rule="evenodd" d="M16.25 3.53492C16.25 4.4179 15.905 5.25165 15.2815 5.87618L6.25447 14.9187C6.08876 15.0847 5.88138 15.203 5.6563 15.2581L1.8531 16.2105C1.74926 16.2371 1.64373 16.2501 1.53732 16.2501C1.19702 16.2501 0.868835 16.1146 0.62499 15.8703C0.307182 15.5495 0.179287 15.0862 0.288109 14.6477L1.23812 10.8374C1.29405 10.6109 1.41199 10.4027 1.57698 10.2375L10.604 1.19492C11.8617 -0.0648831 14.0249 -0.0650184 15.2814 1.19478C15.9057 1.81884 16.25 2.65118 16.25 3.53492ZM14.411 2.065C13.6346 1.28626 12.252 1.28626 11.4751 2.06446L2.44801 11.107C2.44058 11.1144 2.43504 11.1242 2.43268 11.1338L1.48248 14.9449C1.47736 14.9655 1.48363 14.9882 1.49766 15.0024C1.50848 15.0133 1.52309 15.0193 1.53732 15.0193C1.54218 15.0193 1.54511 15.0189 1.55085 15.0175L5.36031 14.0635C5.36743 14.0617 5.37548 14.0571 5.38344 14.0492L14.4105 5.00663C14.8036 4.61283 15.0192 4.09182 15.0192 3.53492C15.0192 2.9773 14.8044 2.45807 14.411 2.065Z" fill="#8A8CA2"/>
</svg>

<svg width="17" height="17" viewBox="0 0 17 17" fill="none" xmlns="http://www.w3.org/2000/svg"><path fill-rule="evenodd" clip-rule="evenodd" d="M16.25 3.535c0 .883-.345 1.717-.969 2.341L6.255 14.92a1.277 1.277 0 01-.598.34l-3.803.951a1.289 1.289 0 01-1.565-1.563l.95-3.81c.056-.226.174-.434.339-.6l9.027-9.042c1.258-1.26 3.42-1.26 4.677 0 .625.624.969 1.456.969 2.34zm-1.839-1.47c-.776-.779-2.159-.779-2.936 0l-9.027 9.042a.059.059 0 00-.015.027l-.95 3.81a.062.062 0 00.015.058c.01.011.025.017.04.017.004 0 .007 0 .013-.002l3.81-.954a.052.052 0 00.022-.014l9.027-9.042c.394-.394.61-.915.61-1.472a2.06 2.06 0 00-.609-1.47z" fill="#8A8CA2"/></svg>
